X:65
T:Robert & John. JaW.065
T:Bob & Joan. JaW.065
T:Love and Whisky. JaW.065
M:3/2
L:1/4
Q:1/2=100
C:”Love and Whisky”
S:James Winder Ms, Lancashire, 1835-41
R:.Triple Hornpipe
O:England
A:Wyresdale,Lancashire
N:As written, you can find other versions easily enough.CGP..
Z:vmp.Chris Partington, Aug 2004
K:G
BG GE G2 | BG GE FA | BG GE GB | AB AG FA :|!
|:GB dc B2 | GB dc “sic”B/cB/ |A>B A/B/A/G/ FA:|

